icons/layout-flex-align-center-1.svg

<svg fill="none" viewBox="0 0 24 24"><path stroke="currentColor" stroke-linecap="round" stroke-linejoin="round" stroke-width="2" d="M13.8 16.8v-9.6m-3.6 9.6v-9.6m7.8-4.8h-12a3.6 3.6 0 0 0-3.6 3.6v12a3.6 3.6 0 0 0 3.6 3.6h12a3.6 3.6 0 0 0 3.6-3.6v-12a3.6 3.6 0 0 0-3.6-3.6Z"/></svg>

<svg fill="none" viewBox="0 0 24 24"><path stroke="currentColor" stroke-linecap="round" stroke-linejoin="round" stroke-width="2" d="M13.8 16.8V7.2m-3.6 9.6V7.2M18 2.4H6A3.6 3.6 0 0 0 2.4 6v12A3.6 3.6 0 0 0 6 21.6h12a3.6 3.6 0 0 0 3.6-3.6V6A3.6 3.6 0 0 0 18 2.4"/></svg>
